X: 1
T: Drowsy Maggie
C: Trad
R: Reel
r: 16
M: 4/4
L: 1/8
K: Edor
Z: ABC transcription by Verge Roller
|: "Em" E2 BE dEBE | "Em" E2 BE "D" AFDF | "Em" E2 BE dEBE | [1 "Em" BABc "D" dAFD :| [2 "Em" BABc "D" dAFA]  |
|: "D" d2 fd "A" c2 ec | "D" defg afge | [1 "D" d2fd "A" c2ec | "G" BABc "D" dAFA :| [2 "D" afge "A" fdec | "G" BABc "D" dAFD ] |
